X:1
T:Life in the Loom
T:Life in the Loom
T:George Coles Stebbins
T:Mary Artemisia Lathbury, 1902
T:Public Domain Courtesy of the Cyber Hymnal™
C:George Coles Stebbins
Z:Public Domain
Z:Courtesy of the Cyber Hymnal™
%%score ( 1 2 ) ( 3 4 )
L:1/8
Q:1/4=80
M:3/8
K:G
V:1 treble 
V:2 treble 
V:3 bass 
V:4 bass 
V:1
 [DB][CA][B,G] | [B,D]>[CE][B,D] | [DB][CA][B,G] | [CG]2 [CF] | [Ec][DB][CA] | ([CE]>[CF])[B,G] | %6
w: 1.~Chil- dren of|yes- ter- day,|heirs of to-|mor- row,|What are you|weav- * ing?|
w: 2.~Chil- dren of|yes- ter- day,|heirs of to-|mor- row,|Light- en the|labor * and|
w: 3.~Chil- dren of|yes- ter- day,|heirs of to-|mor- row,|Look at your|fabric * of|
 [^CG][CF][CG] | [DB]2 [DA] | [DB][CA][B,G] | [B,D]>[CE][B,D] | [DG][DA][=FB] | [Ed]2 [Ec] | %12
w: la- bor and|sor- row?|Look to your|loom a- gain,|fast- er and|fast- er|
w: sweet- en the|sor- row;|Now while the|shut- tles fly|fast- er and|fast- er,|
w: la- bor and|sor- row;|seam- y and|dark with de-|spair and dis-|as- ter,|
 [Ec][DB][CA] | [Dd][DB][DG] | [EA][CE]>[CF] | [B,G-][CG]!fermata![B,G] ||[M:6/8]"^Refrain" [DB] | %17
w: Fly the great|shut- tles pre-|pared by the|Mas- ter. There’s|life|
w: Up and be|do- ing the|work with the|Mas- ter. He|stands|
w: Turn it and|lo, the de-|sign of the|Mas- ter The|Lord’s|
 B3- [GB][FA][EB] | d3 (E [DA]3) | c3- [^GB][Ac] x | ([^Ae]3 [Bd]2) | [Bd] | [Bd]3- [Bd][GB]G | %23
w: (There's~~life) in the loom!|Room for *|* it, room!|There’s *|life~~~~~(Theres~~life)|in * the loom!|
w: (He~~stands) at the loom!|Room for *|* Him, room!|He *|stands~~~(He~~stands)|at * the loom!|
w: (The~~Lord’s) at the loom!|Room for *|* Him, room!|The *|Lord’s~~~(The’s~~Lord’s)|at * the loom!|
 ([Gc]3 G3) | [GB-]3 [FB][FA][FB] | ([DG-][EG-][_EG-] [DG]2) |] %26
w: Room~~(room) *|for it, room! *||
w: Room~~(room) *|for Him, room! *||
w: Room~~(room) *|for Him, room! *||
V:2
 x3 | x3 | x3 | x3 | x3 | x3 | x3 | x3 | x3 | x3 | x3 | x3 | x3 | x3 | x3 | x3 ||[M:6/8] x | %17
 D2 E x3 | F2 x5 | (F2 ^G c) x2 | x5 | x | x5 G | x6 | x6 | x5 |] %26
V:3
 [G,,G,][G,,G,][G,,G,] | [G,,G,]>[G,,G,][G,,G,] | [G,,G,][A,,F,][B,,G,] | [D,A,]2 [D,A,] | %4
 [D,F,][D,G,][D,F,] | ([D,G,]>[D,A,])[E,G,] | [A,,E,][A,,A,][A,,A,] | [D,G,]2 [D,F,] | %8
 [G,,G,][G,,G,][G,,G,] | [G,,G,]>[G,,G,][G,,G,] | [G,B,][G,C][G,D] | [C,C]2 [C,G,] | %12
 [A,,A,][B,,^G,][C,A,] | [B,,G,][G,,G,][B,,G,] | [C,C][A,,C]>[D,A,] | %15
 [G,,-G,][G,,E,]!fermata![D,,D,] ||[M:6/8] G, | G,2 [G,B,] [G,D][G,C][G,D] | C3- [F,C]3 x | %19
 A,3 [F,D][D,D][F,D] | [G,^C]3 [G,D]2 | [G,D] | [G,D]2 [G,D] [G,D][G,D][=F,B,] | %23
 ([E,C]3 [_E,^C]3) | [D,D]3 [D,D][D,C][D,D] | ([G,,-B,][G,,-C][G,,-A,] [G,,B,]2) |] %26
V:4
 x3 | x3 | x3 | x3 | x3 | x3 | x3 | x3 | x3 | x3 | x3 | x3 | x3 | x3 | x3 | x3 ||[M:6/8] x | x6 | %18
 A,2 G, x4 | D,2 E, x3 | x5 | x | x6 | x6 | x6 | x5 |] %26

